X: 11
T:Dick Gossip
M:C|
L:1/8
R:Reel
K:D
F2AF GFED|FBAF GFED|EDEF GFED|EDEF GFED|!
F2AF GFED|FGAF GFEA|(3Bcd ef gfec|1dfec d2DE:|2dfec d2ef|!
|:gB~B2 gBaB|gB~B2 gfed|(3cBA eA fAeA|(3cBA ef gfef|!
gB~B2 gBaB|gB~B2 gfed|cdef gfec|1dfec d2ef:|2dfec d2DE|]!
